Themes/OneUI/assets/svg/sec_ic_settings_themes.svg

<?xml version="1.0" encoding="UTF-8" standalone="no"?>
<svg
   width="28.000021"
   height="28.000021"
   viewBox="0 0 28.000021 28.000021"
   fill="none"
   version="1.1"
   id="svg2232"
   sodipodi:docname="sec_ic_settings_themes.svg"
   xmlns:inkscape="http://www.inkscape.org/namespaces/inkscape"
   xmlns:sodipodi="http://sodipodi.sourceforge.net/DTD/sodipodi-0.dtd"
   xmlns="http://www.w3.org/2000/svg"
   xmlns:svg="http://www.w3.org/2000/svg">
  <sodipodi:namedview
     id="namedview2234"
     pagecolor="#ffffff"
     bordercolor="#666666"
     borderopacity="1.0"
     inkscape:showpageshadow="2"
     inkscape:pageopacity="0.0"
     inkscape:pagecheckerboard="0"
     inkscape:deskcolor="#d1d1d1" />
  <g
     clip-path="url(#clip0_1_1341)"
     id="g2225">
    <path
       d="M 24.856,3.14401 C 23.13,1.52161 20.7739,0.601214 18.1738,0.256914 15.6907,-0.072186 14,0.00881404 14,0.00881404 c 0,0 -1.691,-0.08100004 -4.17421,0.24809996 -2.6,0.3443 -4.956,1.264696 -6.6815,2.887096 -1.6228,1.7258 -2.543099,4.0819 -2.887599,6.6819 -0.3291004,2.48299 -0.2478004,4.17399 -0.2478004,4.17399 0,0 -0.0813,1.6908 0.2478004,4.174 0.3445,2.5998 1.264799,4.9561 2.887399,6.6819 1.7257,1.6226 4.0817,2.5428 6.6817,2.8875 C 12.309,28.0722 14,27.9912 14,27.9912 c 0,0 1.6907,0.081 4.1738,-0.2479 2.6001,-0.3447 4.9562,-1.2649 6.6818,-2.8875 1.623,-1.7258 2.5432,-4.0821 2.8877,-6.6819 0.3289,-2.4832 0.2479,-4.174 0.2479,-4.174 0,0 0.081,-1.691 -0.2479,-4.17399 -0.3445,-2.6 -1.2647,-4.9561 -2.8873,-6.6819 z"
       fill="#ca84e8"
       id="path2221" />
    <path
       d="m 20.211,12.249 v 1.8306 c 0,0.957 -1.1688,1.3374 -1.54,1.419 -1.3411,0.296 -2.7271,0.6022 -2.9719,1.3621 -0.2273,0.7031 -0.0605,0.9048 0.1302,1.6381 0.0184,0.0545 0.2979,1.0369 0.2979,1.4923 0,1.0964 -1.1229,1.915 -2.1266,1.915 -1.0029,0 -2.1258,-0.8186 -2.1258,-1.915 0,-0.4858 0.3162,-1.5711 0.2952,-1.4923 0.1925,-0.7333 0.3584,-0.935 0.1329,-1.6381 C 12.0572,16.1008 10.6712,15.7946 9.331,15.4986 8.958,15.417 7.7892,15.0366 7.7892,14.0796 V 12.249 Z M 14.0004,6.89444 c 3.7638,-1.375 5.5055,-0.7233 6.2104,0.0595 V 10.8736 H 7.789 V 7.27394 c 0,-0.3383 0.3474,-0.5629 0.6555,-0.4235 0.9661,0.4335 2.9434,0.9991 5.5559,0.044 z"
       fill="#ffffff"
       id="path2223" />
  </g>
  <defs
     id="defs2230">
    <clipPath
       id="clip0_1_1341">
      <rect
         width="28"
         height="28"
         fill="#ffffff"
         id="rect2227"
         x="0"
         y="0" />
    </clipPath>
  </defs>
</svg>

<svg width="28" height="28" viewBox="0 0 28 28" fill="none" xmlns="http://www.w3.org/2000/svg">
<g clip-path="url(#clip0_1_1341)">
<path d="M24.856 3.14401C23.13 1.52161 20.7739 0.601214 18.1738 0.256914C15.6907 -0.072186 14 0.00881404 14 0.00881404C14 0.00881404 12.309 -0.072186 9.82579 0.256914C7.22579 0.601214 4.86979 1.52161 3.14429 3.14401C1.52149 4.86981 0.601191 7.22591 0.256691 9.82591C-0.0724094 12.3089 0.0088906 13.9999 0.0088906 13.9999C0.0088906 13.9999 -0.0724094 15.6907 0.256691 18.1739C0.601191 20.7737 1.52149 23.13 3.14409 24.8558C4.86979 26.4784 7.22579 27.3986 9.82579 27.7433C12.309 28.0722 14 27.9912 14 27.9912C14 27.9912 15.6907 28.0722 18.1738 27.7433C20.7739 27.3986 23.13 26.4784 24.8556 24.8558C26.4786 23.13 27.3988 20.7737 27.7433 18.1739C28.0722 15.6907 27.9912 13.9999 27.9912 13.9999C27.9912 13.9999 28.0722 12.3089 27.7433 9.82591C27.3988 7.22591 26.4786 4.86981 24.856 3.14401Z" fill="#CA84E8"/>
<path d="M20.211 12.249V14.0796C20.211 15.0366 19.0422 15.417 18.671 15.4986C17.3299 15.7946 15.9439 16.1008 15.6991 16.8607C15.4718 17.5638 15.6386 17.7655 15.8293 18.4988C15.8477 18.5533 16.1272 19.5357 16.1272 19.9911C16.1272 21.0875 15.0043 21.9061 14.0006 21.9061C12.9977 21.9061 11.8748 21.0875 11.8748 19.9911C11.8748 19.5053 12.191 18.42 12.17 18.4988C12.3625 17.7655 12.5284 17.5638 12.3029 16.8607C12.0572 16.1008 10.6712 15.7946 9.331 15.4986C8.958 15.417 7.7892 15.0366 7.7892 14.0796V12.249H20.211ZM14.0004 6.89444C17.7642 5.51944 19.5059 6.17114 20.2108 6.95394V10.8736H7.789V7.27394C7.789 6.93564 8.1364 6.71104 8.4445 6.85044C9.4106 7.28394 11.3879 7.84954 14.0004 6.89444Z" fill="white"/>
</g>
<defs>
<clipPath id="clip0_1_1341">
<rect width="28" height="28" fill="white"/>
</clipPath>
</defs>
</svg>
